svg/FoundationIcons/fi-mobile.svg

<svg xmlns="http://www.w3.org/2000/svg" viewBox="0 0 100 100" enable-background="new 0 0 100 100"><path fill="#231f20" d="m69.33 17.517h-38.761v.001c-1.331.056-2.396 1.144-2.396 2.49v59.967c0 1.345 1.065 2.433 2.396 2.489v.011h38.761c1.38 0 2.5-1.119 2.5-2.5v-59.967c0-1.381-1.119-2.5-2.5-2.5m-19.269 62.38c-1.353 0-2.45-1.097-2.45-2.45 0-1.354 1.097-2.451 2.45-2.451s2.45 1.097 2.45 2.451c0 1.353-1.097 2.45-2.45 2.45m11.813-7.395h-23.744v-45.03h23.743v45.03z"/></svg>

<?xml version="1.0" encoding="utf-8"?>
<!-- Generator: Adobe Illustrator 17.0.0, SVG Export Plug-In . SVG Version: 6.00 Build 0)  -->
<!DOCTYPE svg PUBLIC "-//W3C//DTD SVG 1.1//EN" "http://www.w3.org/Graphics/SVG/1.1/DTD/svg11.dtd">
<svg version="1.1" id="Layer_1" xmlns="http://www.w3.org/2000/svg" xmlns:xlink="http://www.w3.org/1999/xlink" x="0px" y="0px"
	 width="100px" height="100px" viewBox="0 0 100 100" enable-background="new 0 0 100 100" xml:space="preserve">
<g>
	<path fill="#231F20" d="M69.328,17.517H30.567v0.01c-1.331,0.056-2.396,1.144-2.396,2.49v59.967c0,1.345,1.065,2.433,2.396,2.489
		v0.011h38.761c1.38,0,2.5-1.119,2.5-2.5V20.017C71.828,18.636,70.709,17.517,69.328,17.517z M50.059,79.9
		c-1.353,0-2.45-1.097-2.45-2.45c0-1.354,1.097-2.451,2.45-2.451s2.45,1.097,2.45,2.451C52.509,78.803,51.412,79.9,50.059,79.9z
		 M61.872,72.505H38.128V27.473h23.743V72.505z"/>
</g>
</svg>
